X: 26798
T: Miller's Gin
R: reel
M: 4/4
K: Dmajor
|:FA2A2 A2 (A|A2)E3/F/ EDD2|FA2(A A)EFB|A2E3/F/ EDA2|
BDGB ADF(d|d2)E3/F/ EDD2|A2EF E3D|ED(B,2B,3)D|A2EFE3F|EDD6:|
|:B2c2d2e2|fe2 d2c3|GBdB Acec|dfaba3 c|
B2c2d2e2|fe2 d2c3|1 [B6 G6] ([B2 G2]|[B6 G6]) dc:|2 G6 (F2|F4) AGFG|E3 d3 (c2|c) d3 EFE2||

